icons/black/apkpurer.svg

<?xml version="1.0" encoding="UTF-8"?><svg id="a" xmlns="http://www.w3.org/2000/svg" viewBox="0 0 48 48"><defs><style>.j{fill:none;stroke:#000;stroke-linecap:round;stroke-linejoin:round;}</style></defs><path id="b" class="j" d="M11.0651,23.9208h6.0864"/><path id="c" class="j" d="M18.7165,28.6161l-4.5213-13.9118-4.6952,13.9118"/><path id="d" class="j" d="M21.7721,19.3839v13.9118"/><path id="e" class="j" d="M33.457,23.747l5.043,4.8691"/><path id="f" class="j" d="M31.5441,25.66l6.2603-6.2603"/><path id="g" class="j" d="M21.7725,25.1323c0,1.9159,1.5649,3.4835,3.4775,3.4835h0c1.9126,0,3.4775-1.5676,3.4775-3.4835v-2.2643c0-1.9159-1.5649-3.4835-3.4775-3.4835h0c-1.9126,0-3.4775,1.5676-3.4775,3.4835"/><path id="h" class="j" d="M31.5441,14.7044v13.9118"/><path id="i" class="j" d="M5.5,19.6v18.9c0,2.2091,1.7909,4,4,4h29c2.2091,0,4-1.7909,4-4V9.5c0-2.2091-1.7909-4-4-4H9.5c-2.2091,0-4,1.7909-4,4v10.1"/></svg>

<svg xmlns="http://www.w3.org/2000/svg" viewBox="0 0 48 48"><defs><style>.a{fill:none;stroke:#000;stroke-linecap:round;stroke-linejoin:round;}</style></defs><path class="a" d="M11.0651,23.9208h6.0864"/><path class="a" d="M18.7165,28.6161,14.1952,14.7043,9.5,28.6161"/><path class="a" d="M21.7721,19.3839V33.2957"/><path class="a" d="M33.457,23.747,38.5,28.6162"/><path class="a" d="M31.5441,25.66l6.26-6.26"/><path class="a" d="M21.7725,25.1323A3.4908,3.4908,0,0,0,25.25,28.6158h0a3.4908,3.4908,0,0,0,3.4775-3.4835V22.868A3.4908,3.4908,0,0,0,25.25,19.3844h0a3.4908,3.4908,0,0,0-3.4775,3.4836"/><path class="a" d="M31.5441,14.7044V28.6162"/><path class="a" d="M5.5,19.6V40.5a2,2,0,0,0,2,2h33a2,2,0,0,0,2-2V7.5a2,2,0,0,0-2-2H7.5a2,2,0,0,0-2,2V19.6"/></svg>
